X:116 
T:Little White Coat, The
F:file ID: cre.5/116little
B:CRE5.051 (An Cóta Beag Bán)
N:I did some editing in second part.
M:6/8
R:jig
K:G
d|dgf edc|BAG EGB|Add edd|gdd edc|
dgf edc|BAG EGB|Add edc|BGG G2:|
a|bgd efg|aba bgf|edc B2c|dgf geB|
Add edd|Adc BAG|EGB edc|BGG G2:|
P:Source version:
d|dgf edc|BAG EGB|Add edd|gdd edc|
dgf edc|BAG EGB|Add edc|BGG G2:|
b|bge beg|bab bge|edc Gce|dgf geB|
Add edd|Adc BAG|EGB edc|BGG G2:|

